packages/kaspersky-hexa-ui-icons/src/iconsSVGs/28x20/FlagIr.svg

<svg width="28" height="20" viewBox="0 0 28 20" fill="none" xmlns="http://www.w3.org/2000/svg">
<g clip-path="url(#clip0_5138_1052)">
<path d="M0 2C0 0.895431 0.895431 0 2 0H26C27.1046 0 28 0.895431 28 2V18C28 19.1046 27.1046 20 26 20H2C0.895431 20 0 19.1046 0 18V2Z" fill="white"/>
<mask id="mask0_5138_1052" style="mask-type:luminance" maskUnits="userSpaceOnUse" x="0" y="0" width="28" height="20">
<rect width="28" height="20" rx="2" fill="white"/>
</mask>
<g mask="url(#mask0_5138_1052)">
<path d="M26 19.5V20H2V19.5H26ZM27.5 18V2C27.5 1.17157 26.8284 0.5 26 0.5H2C1.17157 0.5 0.5 1.17157 0.5 2V18C0.5 18.8284 1.17157 19.5 2 19.5V20C0.895431 20 0 19.1046 0 18V2C2.57702e-07 0.895431 0.895431 0 2 0H26C27.1046 0 28 0.895431 28 2V18C28 19.1046 27.1046 20 26 20V19.5C26.8284 19.5 27.5 18.8284 27.5 18Z" fill="#F5F5F5"/>
<path fill-rule="evenodd" clip-rule="evenodd" d="M0 6.66667H28V0H0V6.66667Z" fill="#38BB56"/>
<path fill-rule="evenodd" clip-rule="evenodd" d="M0 20H28V13.3333H0V20Z" fill="#DE1B27"/>
<path fill-rule="evenodd" clip-rule="evenodd" d="M1.66668 5.33333C1.48258 5.33333 1.33334 5.48257 1.33334 5.66666V6.33333C1.33334 6.51742 1.48258 6.66666 1.66668 6.66666H2.33334C2.51744 6.66666 2.66668 6.51742 2.66668 6.33333V5.66666C2.66668 5.48257 2.51744 5.33333 2.33334 5.33333H1.66668ZM4.33334 5.33333C4.14925 5.33333 4.00001 5.48257 4.00001 5.66666V6.33333C4.00001 6.51742 4.14925 6.66666 4.33334 6.66666H5.00001C5.18411 6.66666 5.33334 6.51742 5.33334 6.33333V5.66666C5.33334 5.48257 5.1841 5.33333 5.00001 5.33333H4.33334ZM6.66668 5.66666C6.66668 5.48257 6.81592 5.33333 7.00001 5.33333H7.66668C7.85077 5.33333 8.00001 5.48257 8.00001 5.66666V6.33333C8.00001 6.51742 7.85077 6.66666 7.66668 6.66666H7.00001C6.81592 6.66666 6.66668 6.51742 6.66668 6.33333V5.66666ZM9.66668 5.33333C9.48258 5.33333 9.33334 5.48257 9.33334 5.66666V6.33333C9.33334 6.51742 9.48258 6.66666 9.66668 6.66666H10.3333C10.5174 6.66666 10.6667 6.51742 10.6667 6.33333V5.66666C10.6667 5.48257 10.5174 5.33333 10.3333 5.33333H9.66668ZM12 5.66666C12 5.48257 12.1492 5.33333 12.3333 5.33333H13C13.1841 5.33333 13.3333 5.48257 13.3333 5.66666V6.33333C13.3333 6.51742 13.1841 6.66666 13 6.66666H12.3333C12.1492 6.66666 12 6.51742 12 6.33333V5.66666ZM15 5.33333C14.8159 5.33333 14.6667 5.48257 14.6667 5.66666V6.33333C14.6667 6.51742 14.8159 6.66666 15 6.66666H15.6667C15.8508 6.66666 16 6.51742 16 6.33333V5.66666C16 5.48257 15.8508 5.33333 15.6667 5.33333H15ZM17.3333 5.66666C17.3333 5.48257 17.4826 5.33333 17.6667 5.33333H18.3333C18.5174 5.33333 18.6667 5.48257 18.6667 5.66666V6.33333C18.6667 6.51742 18.5174 6.66666 18.3333 6.66666H17.6667C17.4826 6.66666 17.3333 6.51742 17.3333 6.33333V5.66666ZM20.3333 5.33333C20.1492 5.33333 20 5.48257 20 5.66666V6.33333C20 6.51742 20.1492 6.66666 20.3333 6.66666H21C21.1841 6.66666 21.3333 6.51742 21.3333 6.33333V5.66666C21.3333 5.48257 21.1841 5.33333 21 5.33333H20.3333ZM22.6667 5.66666C22.6667 5.48257 22.8159 5.33333 23 5.33333H23.6667C23.8508 5.33333 24 5.48257 24 5.66666V6.33333C24 6.51742 23.8508 6.66666 23.6667 6.66666H23C22.8159 6.66666 22.6667 6.51742 22.6667 6.33333V5.66666ZM25.6667 5.33333C25.4826 5.33333 25.3333 5.48257 25.3333 5.66666V6.33333C25.3333 6.51742 25.4826 6.66666 25.6667 6.66666H26.3333C26.5174 6.66666 26.6667 6.51742 26.6667 6.33333V5.66666C26.6667 5.48257 26.5174 5.33333 26.3333 5.33333H25.6667ZM1.33334 13.6667C1.33334 13.4826 1.48258 13.3333 1.66668 13.3333H2.33334C2.51744 13.3333 2.66668 13.4826 2.66668 13.6667V14.3333C2.66668 14.5174 2.51744 14.6667 2.33334 14.6667H1.66668C1.48258 14.6667 1.33334 14.5174 1.33334 14.3333V13.6667ZM4.33334 13.3333C4.14925 13.3333 4.00001 13.4826 4.00001 13.6667V14.3333C4.00001 14.5174 4.14925 14.6667 4.33334 14.6667H5.00001C5.18411 14.6667 5.33334 14.5174 5.33334 14.3333V13.6667C5.33334 13.4826 5.1841 13.3333 5.00001 13.3333H4.33334ZM6.66668 13.6667C6.66668 13.4826 6.81592 13.3333 7.00001 13.3333H7.66668C7.85077 13.3333 8.00001 13.4826 8.00001 13.6667V14.3333C8.00001 14.5174 7.85077 14.6667 7.66668 14.6667H7.00001C6.81592 14.6667 6.66668 14.5174 6.66668 14.3333V13.6667ZM9.66668 13.3333C9.48258 13.3333 9.33334 13.4826 9.33334 13.6667V14.3333C9.33334 14.5174 9.48258 14.6667 9.66668 14.6667H10.3333C10.5174 14.6667 10.6667 14.5174 10.6667 14.3333V13.6667C10.6667 13.4826 10.5174 13.3333 10.3333 13.3333H9.66668ZM12 13.6667C12 13.4826 12.1492 13.3333 12.3333 13.3333H13C13.1841 13.3333 13.3333 13.4826 13.3333 13.6667V14.3333C13.3333 14.5174 13.1841 14.6667 13 14.6667H12.3333C12.1492 14.6667 12 14.5174 12 14.3333V13.6667ZM15 13.3333C14.8159 13.3333 14.6667 13.4826 14.6667 13.6667V14.3333C14.6667 14.5174 14.8159 14.6667 15 14.6667H15.6667C15.8508 14.6667 16 14.5174 16 14.3333V13.6667C16 13.4826 15.8508 13.3333 15.6667 13.3333H15ZM17.3333 13.6667C17.3333 13.4826 17.4826 13.3333 17.6667 13.3333H18.3333C18.5174 13.3333 18.6667 13.4826 18.6667 13.6667V14.3333C18.6667 14.5174 18.5174 14.6667 18.3333 14.6667H17.6667C17.4826 14.6667 17.3333 14.5174 17.3333 14.3333V13.6667ZM20.3333 13.3333C20.1492 13.3333 20 13.4826 20 13.6667V14.3333C20 14.5174 20.1492 14.6667 20.3333 14.6667H21C21.1841 14.6667 21.3333 14.5174 21.3333 14.3333V13.6667C21.3333 13.4826 21.1841 13.3333 21 13.3333H20.3333ZM22.6667 13.6667C22.6667 13.4826 22.8159 13.3333 23 13.3333H23.6667C23.8508 13.3333 24 13.4826 24 13.6667V14.3333C24 14.5174 23.8508 14.6667 23.6667 14.6667H23C22.8159 14.6667 22.6667 14.5174 22.6667 14.3333V13.6667ZM25.6667 13.3333C25.4826 13.3333 25.3333 13.4826 25.3333 13.6667V14.3333C25.3333 14.5174 25.4826 14.6667 25.6667 14.6667H26.3333C26.5174 14.6667 26.6667 14.5174 26.6667 14.3333V13.6667C26.6667 13.4826 26.5174 13.3333 26.3333 13.3333H25.6667Z" fill="white" fill-opacity="0.5"/>
<mask id="path-7-inside-1_5138_1052" fill="white">
<path fill-rule="evenodd" clip-rule="evenodd" d="M12.6535 8.52115C12.252 8.88694 12 9.41405 12 10C12 11.1046 12.8954 12 14 12C15.1046 12 16 11.1046 16 10C16 9.42511 15.7574 8.90686 15.3691 8.54203"/>
</mask>
<path d="M12.6535 8.52115L12.2045 8.02833C11.6702 8.51513 11.3333 9.2187 11.3333 10H12H12.6667C12.6667 9.60939 12.8338 9.25875 13.1025 9.01397L12.6535 8.52115ZM12 10H11.3333C11.3333 11.4728 12.5272 12.6667 14 12.6667V12V11.3333C13.2636 11.3333 12.6667 10.7364 12.6667 10H12ZM14 12V12.6667C15.4728 12.6667 16.6667 11.4728 16.6667 10H16H15.3333C15.3333 10.7364 14.7364 11.3333 14 11.3333V12ZM16 10H16.6667C16.6667 9.23352 16.3424 8.5417 15.8255 8.05613L15.3691 8.54203L14.9126 9.02793C15.1724 9.27202 15.3333 9.61669 15.3333 10H16Z" fill="#D80915" mask="url(#path-7-inside-1_5138_1052)"/>
<rect x="13.3333" y="9.33333" width="1.33333" height="2.66667" rx="0.666667" fill="#D80915"/>
</g>
</g>
<defs>
<clipPath id="clip0_5138_1052">
<rect width="28" height="20" fill="white"/>
</clipPath>
</defs>
</svg>

<svg xmlns="http://www.w3.org/2000/svg" width="28" height="20" fill="none" viewBox="0 0 28 20"><g clip-path="url(#a)"><path fill="#fff" d="M0 2C0 .8954.8954 0 2 0h24c1.1046 0 2 .8954 2 2v16c0 1.1046-.8954 2-2 2H2c-1.1046 0-2-.8954-2-2z"/><mask id="b" width="28" height="20" x="0" y="0" maskUnits="userSpaceOnUse" style="mask-type:luminance"><rect width="28" height="20" fill="#fff" rx="2"/></mask><g mask="url(#b)"><path fill="#f5f5f5" d="M26 19.5v.5H2v-.5zm1.5-1.5V2c0-.8284-.6716-1.5-1.5-1.5H2C1.1716.5.5 1.1716.5 2v16c0 .8284.6716 1.5 1.5 1.5v.5c-1.1046 0-2-.8954-2-2V2C0 .8954.8954 0 2 0h24c1.1046 0 2 .8954 2 2v16c0 1.1046-.8954 2-2 2v-.5c.8284 0 1.5-.6716 1.5-1.5"/><path fill="#38bb56" fill-rule="evenodd" d="M0 6.6667h28V0H0z" clip-rule="evenodd"/><path fill="#de1b27" fill-rule="evenodd" d="M0 20h28v-6.6667H0z" clip-rule="evenodd"/><path fill="#fff" fill-rule="evenodd" d="M1.6667 5.3333a.3333.3333 0 0 0-.3334.3334v.6666c0 .1841.1493.3334.3334.3334h.6666a.3333.3333 0 0 0 .3334-.3334v-.6666a.3333.3333 0 0 0-.3334-.3334zm2.6666 0A.3333.3333 0 0 0 4 5.6667v.6666c0 .1841.1493.3334.3333.3334H5a.3333.3333 0 0 0 .3333-.3334v-.6666A.3333.3333 0 0 0 5 5.3333zm2.3334.3334A.3334.3334 0 0 1 7 5.3333h.6667c.184 0 .3333.1493.3333.3334v.6666a.3333.3333 0 0 1-.3333.3334H7a.3333.3333 0 0 1-.3333-.3334zm3-.3334a.3333.3333 0 0 0-.3334.3334v.6666c0 .1841.1493.3334.3334.3334h.6666a.3334.3334 0 0 0 .3334-.3334v-.6666a.3334.3334 0 0 0-.3334-.3334zM12 5.6667a.3334.3334 0 0 1 .3333-.3334H13a.3333.3333 0 0 1 .3333.3334v.6666A.3333.3333 0 0 1 13 6.6667h-.6667A.3333.3333 0 0 1 12 6.3333zm3-.3334a.3333.3333 0 0 0-.3333.3334v.6666c0 .1841.1492.3334.3333.3334h.6667A.3333.3333 0 0 0 16 6.3333v-.6666a.3333.3333 0 0 0-.3333-.3334zm2.3333.3334a.3334.3334 0 0 1 .3334-.3334h.6666a.3334.3334 0 0 1 .3334.3334v.6666a.3334.3334 0 0 1-.3334.3334h-.6666a.3334.3334 0 0 1-.3334-.3334zm3-.3334A.3333.3333 0 0 0 20 5.6667v.6666c0 .1841.1492.3334.3333.3334H21a.3333.3333 0 0 0 .3333-.3334v-.6666A.3333.3333 0 0 0 21 5.3333zm2.3334.3334A.3334.3334 0 0 1 23 5.3333h.6667A.3333.3333 0 0 1 24 5.6667v.6666a.3333.3333 0 0 1-.3333.3334H23a.3333.3333 0 0 1-.3333-.3334zm3-.3334a.3334.3334 0 0 0-.3334.3334v.6666c0 .1841.1493.3334.3334.3334h.6666a.3334.3334 0 0 0 .3334-.3334v-.6666a.3334.3334 0 0 0-.3334-.3334zM1.3333 13.6667a.3334.3334 0 0 1 .3334-.3334h.6666a.3334.3334 0 0 1 .3334.3334v.6666a.3334.3334 0 0 1-.3334.3334h-.6666a.3334.3334 0 0 1-.3334-.3334zm3-.3334A.3334.3334 0 0 0 4 13.6667v.6666c0 .1841.1493.3334.3333.3334H5a.3334.3334 0 0 0 .3333-.3334v-.6666A.3334.3334 0 0 0 5 13.3333zm2.3334.3334A.3334.3334 0 0 1 7 13.3333h.6667c.184 0 .3333.1493.3333.3334v.6666a.3334.3334 0 0 1-.3333.3334H7a.3334.3334 0 0 1-.3333-.3334zm3-.3334a.3334.3334 0 0 0-.3334.3334v.6666c0 .1841.1493.3334.3334.3334h.6666a.3334.3334 0 0 0 .3334-.3334v-.6666a.3334.3334 0 0 0-.3334-.3334zM12 13.6667a.3334.3334 0 0 1 .3333-.3334H13a.3334.3334 0 0 1 .3333.3334v.6666a.3334.3334 0 0 1-.3333.3334h-.6667A.3334.3334 0 0 1 12 14.3333zm3-.3334a.3334.3334 0 0 0-.3333.3334v.6666c0 .1841.1492.3334.3333.3334h.6667A.3334.3334 0 0 0 16 14.3333v-.6666a.3334.3334 0 0 0-.3333-.3334zm2.3333.3334a.3334.3334 0 0 1 .3334-.3334h.6666a.3334.3334 0 0 1 .3334.3334v.6666a.3334.3334 0 0 1-.3334.3334h-.6666a.3334.3334 0 0 1-.3334-.3334zm3-.3334a.3334.3334 0 0 0-.3333.3334v.6666c0 .1841.1492.3334.3333.3334H21a.3334.3334 0 0 0 .3333-.3334v-.6666A.3334.3334 0 0 0 21 13.3333zm2.3334.3334A.3334.3334 0 0 1 23 13.3333h.6667a.3334.3334 0 0 1 .3333.3334v.6666a.3334.3334 0 0 1-.3333.3334H23a.3334.3334 0 0 1-.3333-.3334zm3-.3334a.3334.3334 0 0 0-.3334.3334v.6666c0 .1841.1493.3334.3334.3334h.6666a.3334.3334 0 0 0 .3334-.3334v-.6666a.3334.3334 0 0 0-.3334-.3334z" clip-rule="evenodd"/><mask id="c" fill="#fff"><path fill-rule="evenodd" d="M12.6535 8.5212A1.995 1.995 0 0 0 12 10c0 1.1046.8954 2 2 2s2-.8954 2-2a1.995 1.995 0 0 0-.6309-1.458" clip-rule="evenodd"/></mask><path fill="#d80915" d="m12.6535 8.5212-.449-.4929c-.5343.4868-.8712 1.1904-.8712 1.9717h1.3334c0-.3906.1671-.7413.4358-.986zM12 10h-.6667c0 1.4728 1.1939 2.6667 2.6667 2.6667v-1.3334c-.7364 0-1.3333-.5969-1.3333-1.3333zm2 2v.6667c1.4728 0 2.6667-1.1939 2.6667-2.6667h-1.3334c0 .7364-.5969 1.3333-1.3333 1.3333zm2-2h.6667c0-.7665-.3243-1.4583-.8412-1.9439l-.4564.486-.4565.4858a1.328 1.328 0 0 1 .4207.9721z" mask="url(#c)"/><rect width="1" height="3" x="13" y="9" fill="#d80915" rx="1"/></g></g><defs><clipPath id="a"><path fill="#fff" d="M0 0h28v20H0z"/></clipPath></defs></svg>
